src/assets/outline/Document1.svg

<svg width="24" height="24" viewBox="0 0 24 24"  xmlns="http://www.w3.org/2000/svg">
<path d="M15 22.75H9C3.57 22.75 1.25 20.43 1.25 15V9C1.25 3.57 3.57 1.25 9 1.25H14C14.41 1.25 14.75 1.59 14.75 2C14.75 2.41 14.41 2.75 14 2.75H9C4.39 2.75 2.75 4.39 2.75 9V15C2.75 19.61 4.39 21.25 9 21.25H15C19.61 21.25 21.25 19.61 21.25 15V10C21.25 9.59 21.59 9.25 22 9.25C22.41 9.25 22.75 9.59 22.75 10V15C22.75 20.43 20.43 22.75 15 22.75Z" />
<path d="M22 10.7505H18C14.58 10.7505 13.25 9.42048 13.25 6.00048V2.00048C13.25 1.70048 13.43 1.42048 13.71 1.31048C13.99 1.19048 14.31 1.26048 14.53 1.47048L22.53 9.47048C22.74 9.68048 22.81 10.0105 22.69 10.2905C22.57 10.5705 22.3 10.7505 22 10.7505ZM14.75 3.81048V6.00048C14.75 8.58048 15.42 9.25048 18 9.25048H20.19L14.75 3.81048Z" />
</svg>

<?xml version="1.0" encoding="UTF-8"?>
<svg width="24" height="24" viewBox="0 0 24 24" xmlns="http://www.w3.org/2000/svg">
 <path d="m15 22.75h-6c-5.43 0-7.75-2.32-7.75-7.75v-6c0-5.43 2.32-7.75 7.75-7.75h5c0.41 0 0.75 0.34 0.75 0.75s-0.34 0.75-0.75 0.75h-5c-4.61 0-6.25 1.64-6.25 6.25v6c0 4.61 1.64 6.25 6.25 6.25h6c4.61 0 6.25-1.64 6.25-6.25v-5c0-0.41 0.34-0.75 0.75-0.75s0.75 0.34 0.75 0.75v5c0 5.43-2.32 7.75-7.75 7.75z"/>
 <path d="m22 10.75h-4c-3.42 0-4.75-1.33-4.75-4.75v-4c0-0.3 0.18-0.58 0.46-0.69 0.28-0.12 0.6-0.05 0.82 0.16l8 8c0.21 0.21 0.28 0.54002 0.16 0.82002s-0.39 0.46-0.69 0.46zm-7.25-6.94v2.19c0 2.58 0.67 3.25 3.25 3.25h2.19l-5.44-5.44z"/>
</svg>
